app/img/logo/logo.svg

<svg width="12" height="14" viewBox="0 0 12 14" fill="none" xmlns="http://www.w3.org/2000/svg">
<path fill-rule="evenodd" clip-rule="evenodd" d="M8.66667 7.66659H6.66667C6.3 7.66659 6 7.96659 6 8.33325V10.3333C6 10.6999 6.3 10.9999 6.66667 10.9999H8.66667C9.03333 10.9999 9.33333 10.6999 9.33333 10.3333V8.33325C9.33333 7.96659 9.03333 7.66659 8.66667 7.66659ZM8.66667 0.999919V1.66659H3.33333V0.999919C3.33333 0.633252 3.03333 0.333252 2.66667 0.333252C2.3 0.333252 2 0.633252 2 0.999919V1.66659H1.33333C0.593333 1.66659 0.00666667 2.26659 0.00666667 2.99992L0 12.3333C0 13.0666 0.593333 13.6666 1.33333 13.6666H10.6667C11.4 13.6666 12 13.0666 12 12.3333V2.99992C12 2.26659 11.4 1.66659 10.6667 1.66659H10V0.999919C10 0.633252 9.7 0.333252 9.33333 0.333252C8.96667 0.333252 8.66667 0.633252 8.66667 0.999919ZM10 12.3333H2C1.63333 12.3333 1.33333 12.0333 1.33333 11.6666V4.99992H10.6667V11.6666C10.6667 12.0333 10.3667 12.3333 10 12.3333Z" fill="#5787A4"/>
</svg>

<svg width="12" height="14" fill="none" xmlns="http://www.w3.org/2000/svg"><path fill-rule="evenodd" clip-rule="evenodd" d="M8.667 7.667h-2c-.367 0-.667.3-.667.666v2c0 .367.3.667.667.667h2c.366 0 .666-.3.666-.667v-2c0-.366-.3-.666-.666-.666zm0-6.667v.667H3.333V1c0-.367-.3-.667-.666-.667C2.3.333 2 .633 2 1v.667h-.667c-.74 0-1.326.6-1.326 1.333L0 12.333c0 .734.593 1.334 1.333 1.334h9.334c.733 0 1.333-.6 1.333-1.334V3c0-.733-.6-1.333-1.333-1.333H10V1c0-.367-.3-.667-.667-.667-.366 0-.666.3-.666.667zM10 12.333H2a.669.669 0 01-.667-.666V5h9.334v6.667c0 .366-.3.666-.667.666z" fill="#5787A4"/></svg>
